polaris-icons/icons/new-icons/PaperCheckMajor.svg

<svg width="20" height="20" viewBox="0 0 20 20" fill="none" xmlns="http://www.w3.org/2000/svg">
<path d="M13.4964 5.35367C13.6917 5.1584 13.6917 4.84182 13.4964 4.64656L12.4358 3.5859C12.2405 3.39064 11.9239 3.39064 11.7287 3.5859L10.7715 4.54302L12.5393 6.31078L13.4964 5.35367Z" fill="#4A4A4A"/>
<path d="M11.8322 7.01789L10.0644 5.25012L7.61546 7.69909C7.24209 8.07247 7.03152 8.57834 7.02969 9.10637L7.02727 9.80419C7.02679 9.94294 7.13939 10.0555 7.27813 10.0551L7.97595 10.0526C8.50398 10.0508 9.00986 9.84023 9.38323 9.46686L11.8322 7.01789Z" fill="#4A4A4A"/>
<path d="M4.25 9.25011C4.25 8.55976 4.80964 8.00011 5.5 8.00011H5.75C6.16421 8.00011 6.5 7.66433 6.5 7.25011C6.5 6.8359 6.16421 6.50011 5.75 6.50011H5.5C3.98122 6.50011 2.75 7.73133 2.75 9.25011V13.2501C2.75 14.7689 3.98122 16.0001 5.5 16.0001H14.5C16.0188 16.0001 17.25 14.7689 17.25 13.2501V9.00011C17.25 7.6194 16.1307 6.50011 14.75 6.50011C14.3358 6.50011 14 6.8359 14 7.25011C14 7.66433 14.3358 8.00011 14.75 8.00011C15.3023 8.00011 15.75 8.44783 15.75 9.00011V13.2501C15.75 13.9405 15.1904 14.5001 14.5 14.5001H5.5C4.80964 14.5001 4.25 13.9405 4.25 13.2501V9.25011Z" fill="#4A4A4A"/>
<path d="M6.5 11.5001C6.08579 11.5001 5.75 11.8359 5.75 12.2501C5.75 12.6643 6.08579 13.0001 6.5 13.0001H10.5C10.9142 13.0001 11.25 12.6643 11.25 12.2501C11.25 11.8359 10.9142 11.5001 10.5 11.5001H6.5Z" fill="#4A4A4A"/>
<path d="M12.25 12.2501C12.25 11.8359 12.5858 11.5001 13 11.5001H13.5C13.9142 11.5001 14.25 11.8359 14.25 12.2501C14.25 12.6643 13.9142 13.0001 13.5 13.0001H13C12.5858 13.0001 12.25 12.6643 12.25 12.2501Z" fill="#4A4A4A"/>
</svg>

<svg viewBox="0 0 20 20" xmlns="http://www.w3.org/2000/svg"><path d="M13.496 5.354a.5.5 0 0 0 0-.707l-1.06-1.061a.5.5 0 0 0-.707 0l-.957.957 1.767 1.768.957-.957Z" fill="#5C5F62"/><path d="m11.832 7.018-1.768-1.768-2.449 2.45a2 2 0 0 0-.585 1.406l-.003.698a.25.25 0 0 0 .251.251l.698-.002a2 2 0 0 0 1.407-.586l2.45-2.45Z" fill="#5C5F62"/><path d="M4.25 9.25c0-.69.56-1.25 1.25-1.25h.25a.75.75 0 1 0 0-1.5h-.25a2.75 2.75 0 0 0-2.75 2.75v4a2.75 2.75 0 0 0 2.75 2.75h9a2.75 2.75 0 0 0 2.75-2.75v-4.25a2.5 2.5 0 0 0-2.5-2.5.75.75 0 0 0 0 1.5 1 1 0 0 1 1 1v4.25c0 .69-.56 1.25-1.25 1.25h-9c-.69 0-1.25-.56-1.25-1.25v-4Z" fill="#5C5F62"/><path d="M6.5 11.5a.75.75 0 0 0 0 1.5h4a.75.75 0 0 0 0-1.5h-4Z" fill="#5C5F62"/><path d="M12.25 12.25a.75.75 0 0 1 .75-.75h.5a.75.75 0 0 1 0 1.5h-.5a.75.75 0 0 1-.75-.75Z" fill="#5C5F62"/></svg>
